X: 16200
T: Green Spears, The
R: jig
M: 6/8
K: Gmajor
|:G3 GAB|AGE DAB|c2A BAG|EGB A2G|
B/c/dg g2G|B/c/de dBG|A3 ABd|e2d B2A:|
|:~G2 EGD|D2G EGD|DEG GAE|E2G B2A|
~G2 EGD|D2G EGD|DEG EGB|1 ABc B2A:|2 AEG ABc||
~d3 dBd|~e3 edB|dgd B2G|AGE EA/B/c|
~d3 dBd|~e3 edB|d2g edB|~A3 ABc|
~d3 dBd|~e3 edB|dgd B2G|AGE E2A|
GED D2 B,|DEG B/c/dg|~e3 dgb|age dBA||

